packages/heroicons/src/prism/disk.svg

<!-- Generated by IcoMoon.io -->
<svg version="1.1" xmlns="http://www.w3.org/2000/svg" width="16" height="16" viewBox="0 0 16 16">
<title>disk</title>
<path fill="#4a4a4a" d="M13.5 0h-13c-0.275 0-0.5 0.225-0.5 0.5v15c0 0.275 0.225 0.5 0.5 0.5h15c0.275 0 0.5-0.225 0.5-0.5v-13l-2.5-2.5zM4 0.5h8v4c0 0.275-0.225 0.5-0.5 0.5h-7c-0.275 0-0.5-0.225-0.5-0.5v-4zM14 15.5h-12v-6.5c0-0.552 0.448-1 1-1h10c0.552 0 1 0.448 1 1v6.5z"></path>
<path fill="#4a4a4a" d="M9 1h2v3h-2v-3z"></path>
<path fill="#4a4a4a" d="M4 9h8v1h-8v-1z"></path>
<path fill="#4a4a4a" d="M4 11h8v1h-8v-1z"></path>
<path fill="#4a4a4a" d="M4 13h8v1h-8v-1z"></path>
</svg>

<svg xmlns="http://www.w3.org/2000/svg" aria-hidden="true" fill="currentColor" viewBox="0 0 16 16">
  <path d="M13.5 0H.5C.225 0 0 .225 0 .5v15c0 .275.225.5.5.5h15c.275 0 .5-.225.5-.5v-13L13.5 0zM4 .5h8v4c0 .275-.225.5-.5.5h-7a.501.501 0 01-.5-.5v-4zm10 15H2V9a1 1 0 011-1h10a1 1 0 011 1v6.5z"/>
  <path d="M9 1h2v3H9V1zM4 9h8v1H4V9zm0 2h8v1H4v-1zm0 2h8v1H4v-1z"/>
</svg>
